svg/u1f6c4.svg

<svg viewBox="0 0 128 128" xmlns="http://www.w3.org/2000/svg">
  <g>
    <path d="M116,4H12c-4.42,0-8,3.58-8,8v104c0,4.42,3.58,8,8,8h104c4.42,0,8-3.58,8-8V12 C124,7.58,120.42,4,116,4z" fill="#194FA5"/>
    <path d="M109.7,4H11.5C7.37,4.03,4.03,7.37,4,11.5v97.9c-0.01,4.14,3.34,7.49,7.48,7.5c0.01,0,0.01,0,0.02,0 h98.1c4.14,0.01,7.49-3.34,7.5-7.48c0-0.01,0-0.01,0-0.02V11.5c0.09-4.05-3.13-7.41-7.18-7.5C109.85,4,109.77,4,109.7,4z" fill="#2262DD"/>
    <path d="M39.7,12.9c0-2.3-1.6-3-10.8-2.7c-7.7,0.3-11.5,1.2-13.8,4 c-1.9,2.3-2.3,5.6-2.6,8.4c-0.2,2.2-2.2,14.9,3.5,11.2c0.68-0.45,1.23-1.07,1.6-1.8c1.2-2.1,1.9-3.5,3.3-5.6 C26.2,17.8,39.7,15.9,39.7,12.9z" opacity="0.65" fill="#68ABE6" enable-background="new "/>
    <g>
      <circle cx="20.54" cy="102.46" r="5.78" fill="#FAFAFA"/>
      <circle cx="40.77" cy="102.46" r="5.78" fill="#FAFAFA"/>
      <circle cx="61" cy="102.46" r="5.78" fill="#FAFAFA"/>
      <circle cx="101.46" cy="102.46" r="5.78" fill="#FAFAFA"/>
      <circle cx="81.23" cy="102.46" r="5.78" fill="#FAFAFA"/>
      <path d="M77.38,24.43c0-4.79-3.88-8.67-8.67-8.67H53.29c-4.79,0-8.67,3.88-8.67,8.67v1.93 c0,0.53-0.43,0.96-0.96,0.96h-3.85c-1.06,0-1.93,0.87-1.93,1.93v57.8c0,1.06,0.87,1.93,1.93,1.93h42.39 c1.06,0,1.93-0.87,1.93-1.93v-57.8c0-1.06-0.87-1.93-1.93-1.93h-3.85c-0.53,0-0.96-0.43-0.96-0.96V24.43z M49.44,24.43 c0-2.13,1.72-3.85,3.85-3.85h15.41c2.13,0,3.85,1.72,3.85,3.85v1.93c0,0.53-0.43,0.96-0.96,0.96H50.4c-0.53,0-0.96-0.43-0.96-0.96 V24.43z" fill="#FAFAFA"/>
      <path d="M14.76,35.03v46.24c0,4.26,3.45,7.71,7.71,7.71h5.78c1.06,0,1.93-0.87,1.93-1.93v-57.8 c0-1.06-0.87-1.93-1.93-1.93h-5.78C18.21,27.32,14.76,30.77,14.76,35.03z" fill="#FAFAFA"/>
      <path d="M99.54,27.32h-5.78c-1.06,0-1.93,0.87-1.93,1.93v57.8c0,1.06,0.87,1.93,1.93,1.93h5.78 c4.26,0,7.71-3.45,7.71-7.71V35.03C107.24,30.77,103.79,27.32,99.54,27.32z" fill="#FAFAFA"/>
    </g>
    <path d="M39.7,12.9c0-2.3-1.6-3-10.8-2.7c-7.7,0.3-11.5,1.2-13.8,4 c-1.9,2.3-2.3,5.6-2.6,8.4c-0.2,2.2-2.2,14.9,3.5,11.2c0.68-0.45,1.23-1.07,1.6-1.8c1.2-2.1,1.9-3.5,3.3-5.6 C26.2,17.8,39.7,15.9,39.7,12.9z" opacity="0.3" fill="#68ABE6" enable-background="new "/>
  </g>
</svg>

<svg viewBox="0 0 128 128" xmlns="http://www.w3.org/2000/svg">
  <defs/>
  <path d="M116,4 L12,4 C7.58,4 4,7.58 4,12 L4,116 C4,120.42 7.58,124 12,124 L116,124 C120.42,124 124,120.42 124,116 L124,12 C124,7.58 120.42,4 116,4 Z" fill="#194FA5"/>
  <path d="M109.7,4 L11.5,4 C7.37,4.03 4.03,7.37 4,11.5 L4,109.4 C3.99,113.54 7.34,116.89 11.48,116.9 C11.49,116.9 11.49,116.9 11.5,116.9 L109.6,116.9 C113.74,116.91 117.09,113.56 117.1,109.42 C117.1,109.41 117.1,109.41 117.1,109.4 L117.1,11.5 C117.19,7.45 113.97,4.09 109.92,4 C109.85,4 109.77,4 109.7,4 Z" fill="#2262DD"/>
  <path d="M39.7,12.9 C39.7,10.6 38.1,9.9 28.9,10.2 C21.2,10.5 17.4,11.4 15.1,14.2 C13.2,16.5 12.8,19.8 12.5,22.6 C12.3,24.8 10.3,37.5 16,33.8 C16.68,33.35 17.23,32.73 17.6,32 C18.8,29.9 19.5,28.5 20.9,26.4 C26.2,17.8 39.7,15.9 39.7,12.9 Z" fill="#68ABE6" opacity="0.65"/>
  <path d="M26.32,102.46 A5.78 5.78 0 1 1 14.76,102.46 A5.78 5.78 0 1 1 26.32,102.46 Z" fill="#FAFAFA"/>
  <path d="M46.55,102.46 A5.78 5.78 0 1 1 34.99,102.46 A5.78 5.78 0 1 1 46.55,102.46 Z" fill="#FAFAFA"/>
  <path d="M66.78,102.46 A5.78 5.78 0 1 1 55.22,102.46 A5.78 5.78 0 1 1 66.78,102.46 Z" fill="#FAFAFA"/>
  <path d="M107.24,102.46 A5.78 5.78 0 1 1 95.68,102.46 A5.78 5.78 0 1 1 107.24,102.46 Z" fill="#FAFAFA"/>
  <path d="M87.01,102.46 A5.78 5.78 0 1 1 75.45,102.46 A5.78 5.78 0 1 1 87.01,102.46 Z" fill="#FAFAFA"/>
  <path d="M77.38,24.43 C77.38,19.64 73.5,15.76 68.71,15.76 L53.29,15.76 C48.5,15.76 44.62,19.64 44.62,24.43 L44.62,26.36 C44.62,26.89 44.19,27.32 43.66,27.32 L39.81,27.32 C38.75,27.32 37.88,28.19 37.88,29.25 L37.88,87.05 C37.88,88.11 38.75,88.98 39.81,88.98 L82.2,88.98 C83.26,88.98 84.13,88.11 84.13,87.05 L84.13,29.25 C84.13,28.19 83.26,27.32 82.2,27.32 L78.35,27.32 C77.82,27.32 77.39,26.89 77.39,26.36 L77.39,24.43 Z M49.44,24.43 C49.44,22.3 51.16,20.58 53.29,20.58 L68.7,20.58 C70.83,20.58 72.55,22.3 72.55,24.43 L72.55,26.36 C72.55,26.89 72.12,27.32 71.59,27.32 L50.4,27.32 C49.87,27.32 49.44,26.89 49.44,26.36 L49.44,24.43 Z" fill="#FAFAFA"/>
  <path d="M14.76,35.03 L14.76,81.27 C14.76,85.53 18.21,88.98 22.47,88.98 L28.25,88.98 C29.31,88.98 30.18,88.11 30.18,87.05 L30.18,29.25 C30.18,28.19 29.31,27.32 28.25,27.32 L22.47,27.32 C18.21,27.32 14.76,30.77 14.76,35.03 Z" fill="#FAFAFA"/>
  <path d="M99.54,27.32 L93.76,27.32 C92.7,27.32 91.83,28.19 91.83,29.25 L91.83,87.05 C91.83,88.11 92.7,88.98 93.76,88.98 L99.54,88.98 C103.8,88.98 107.25,85.53 107.25,81.27 L107.25,35.03 C107.24,30.77 103.79,27.32 99.54,27.32 Z" fill="#FAFAFA"/>
  <path d="M39.7,12.9 C39.7,10.6 38.1,9.9 28.9,10.2 C21.2,10.5 17.4,11.4 15.1,14.2 C13.2,16.5 12.8,19.8 12.5,22.6 C12.3,24.8 10.3,37.5 16,33.8 C16.68,33.35 17.23,32.73 17.6,32 C18.8,29.9 19.5,28.5 20.9,26.4 C26.2,17.8 39.7,15.9 39.7,12.9 Z" fill="#68ABE6" opacity="0.3"/>
</svg>
